X: 62
T: Dixit Dominus
N: Derived from Mar2029-Dixit_dominus.krn
C: Johannes Martini
%%abc-version 2.0
%%abcx-abcm2ps-target-version 5.9.1 (29 Sep 2008)
%%abc-creator hum2abc beta
%%abcx-conversion-date 2019/02/17 07:19:42
%%abc-edited-by Jesse Rodin
%%abc-edited-by Chris Gage 01-27-2014
%%abcx-initial-encoding-date 2014/10/06/
%%humdrum-veritas 1506891045
%%humdrum-veritas-data 3462930604
%%linebreak <none>
%%barnumbers 0
L: 1/4
M: 4/2
Q: 1/2=120
%%staves {1 2}
V: 1 clef=treble
V: 2 clef=treble-8
K: C
[V:1] c4c4 | 
[V:2] c4e4 | 
[V:1] c4B2c2- | 
[V:2] e4d2e2- | 
[V:1] c2BAG2A2- | 
[V:2] e2dcB2c2- | 
[V:1] A2G4^F2 | 
[V:2] c2B2A4 | 
[V:1] G8 ||  
[V:2] G8 ||  
[V:1] c2c2c4 | 
[V:2] c2c2e4 | 
[V:1] c4c2c2 | 
[V:2] e4e2e2 | 
[V:1] B2c2d4 | 
[V:2] d2e2f4 | 
[V:1] c4z4 | 
[V:2] c4z4 | 
[V:1] c2c2c2B2 | 
[V:2] e2e2e2d2 | 
[V:1] c2A4G2- | 
[V:2] c4c2B2 | 
[V:1] G2^F2G4 ||  
[V:2] A4G4 ||  
[V:1] c4c4 | 
[V:2] c4e4 | 
[V:1] c2c2c2c2 | 
[V:2] e2e2e2e2 | 
[V:1] c4c2c2 | 
[V:2] c4e2e2 | 
[V:1] c4c2B2 | 
[V:2] e4c2d2 | 
[V:1] c2d4c2- | 
[V:2] e2f4e2 | 
[V:1] c2B2c4 | 
[V:2] d4c4 | 
[V:1] z4c2c2 | 
[V:2] z4e2e2 | 
[V:1] c4c2c2 | 
[V:2] e4e2e2 | 
[V:1] c2c2c4 | 
[V:2] e2e2e4 | 
[V:1] c4B2c2- | 
[V:2] c4d2e2- | 
[V:1] c2BAG2A2- | 
[V:2] e2d2B2c2 | 
[V:1] A2G4^F2 | 
[V:2] d2B2A4 | 
[V:1] G8 ||  
[V:2] G8 ||  
[V:1] c4c2c2 | 
[V:2] c4e2e2 | 
[V:1] c2c2c4 | 
[V:2] e2e2e4 | 
[V:1] c4c2B2 | 
[V:2] e4e2d2 | 
[V:1] A2B4A2- | 
[V:2] c2d4c2 | 
[V:1] A2^G2A4 | 
[V:2] B4A4 | 
[V:1] z2c2c2c2 | 
[V:2] z2e4e2 | 
[V:1] B2c2d2c2- | 
[V:2] d2e2f2e2 | 
[V:1] c2B2c4 | 
[V:2] d4c4 | 
[V:1] z4c4 | 
[V:2] z4e4 | 
[V:1] c2c2c4 | 
[V:2] e2e2e4 | 
[V:1] c4c2c2 | 
[V:2] e4e2e2 | 
[V:1] c2c2c4 | 
[V:2] e2e2e4 | 
[V:1] B2c2B2A2- | 
[V:2] d2c2d4 | 
[V:1] A2G4^F2 | 
[V:2] c2B2A4 | 
[V:1] G8 ||  
[V:2] G8 ||  
[V:1] c4c2c2 | 
[V:2] c4e2e2 | 
[V:1] B2B2A4 | 
[V:2] d2d2A4 | 
[V:1] z2c2c2c2 | 
[V:2] e4e2e2 | 
[V:1] c2c2c4 | 
[V:2] e2e2e4 | 
[V:1] d2e4c2- | 
[V:2] f2g4e2 | 
[V:1] c2B2c4 | 
[V:2] d4c4 | 
[V:1] z4c2c2 | 
[V:2] z4e2e2 | 
[V:1] c2c2c2c2 | 
[V:2] e2e2e2e2 | 
[V:1] c2c2c4 | 
[V:2] e2e2c4 | 
[V:1] c2c2c4 | 
[V:2] e2e2e4 | 
[V:1] B2c4BA | 
[V:2] d2e4dc | 
[V:1] G2A4G2- | 
[V:2] B2c4B2 | 
[V:1] G2^F2G4 ||  
[V:2] A4G4 ||  
[V:1] c4c2c2 | 
[V:2] c4e2e2 | 
[V:1] c4B2c2 | 
[V:2] e4d2e2 | 
[V:1] d4c4 | 
[V:2] f4c4 | 
[V:1] z4c2c2 | 
[V:2] z4e2e2 | 
[V:1] c4c4 | 
[V:2] e4e4 | 
[V:1] c2c2B4 | 
[V:2] e2e2d4 | 
[V:1] A2c2B2A2- | 
[V:2] c4d4 | 
[V:1] A2G4^F2 | 
[V:2] c2B2A4 | 
[V:1] G8 ||  
[V:2] G8 ||  
[V:1] c4c2c2 | 
[V:2] c4e2e2 | 
[V:1] c4c4 | 
[V:2] e4e4 | 
[V:1] c2c2c2c2 | 
[V:2] e2e2e2e2 | 
[V:1] c4c2B2 | 
[V:2] e4c2d2 | 
[V:1] c2d4c2- | 
[V:2] e2f4e2 | 
[V:1] c2B2c4 | 
[V:2] d4c4 | 
[V:1] z4c2c2 | 
[V:2] z4e2e2 | 
[V:1] c2c2c2c2 | 
[V:2] e2e2e2e2 | 
[V:1] c4B2A2 | 
[V:2] e4d2c2 | 
[V:1] G2A4G2- | 
[V:2] B2c4G2 | 
[V:1] G2^F2G4 ||  
[V:2] A4G4 ||  
[V:1] c2c2c4 | 
[V:2] c2c2e4 | 
[V:1] c4c2B2 | 
[V:2] e4c2d2 | 
[V:1] c2d4c2- | 
[V:2] e2f4e2 | 
[V:1] c2B2c4 | 
[V:2] d4c4 | 
[V:1] z4c4 | 
[V:2] z4e4 | 
[V:1] c2c2c4 | 
[V:2] e2e2e4 | 
[V:1] B4A2c2 | 
[V:2] d4c2c2 | 
[V:1] B2A4G2- | 
[V:2] d4c2B2 | 
[V:1] G2^F2G4 ||  
[V:2] A4G4 ||  
[V:1] c4c2c2 | 
[V:2] c4e2e2 | 
[V:1] B4c2d2- | 
[V:2] d4e2f2- | 
[V:1] d2c4B2 | 
[V:2] f2e2d4 | 
[V:1] c4z4 | 
[V:2] c4z4 | 
[V:1] c4c4 | 
[V:2] e4e4 | 
[V:1] B2c4BA | 
[V:2] d2e4dc | 
[V:1] G2A4G2- | 
[V:2] B2c4B2 | 
[V:1] G2^F2G4 ||  
[V:2] A4G4 ||  
[V:1] c2c2c2c2 | 
[V:2] c2c2e2e2 | 
[V:1] c2c2c2c2 | 
[V:2] e2e2e2e2 | 
[V:1] c4c2d2- | 
[V:2] e4e2d2 | 
[V:1] d2c4B2 | 
[V:2] f2e2d4 | 
[V:1] c4z4 | 
[V:2] c4z4 | 
[V:1] c2c2c2c2 | 
[V:2] e2e2e2e2 | 
[V:1] c4B2A2 | 
[V:2] e4d2c2 | 
[V:1] G2A4G2- | 
[V:2] B2c4B2 | 
[V:1] G2^F2G4 |]  
[V:2] A4G4 |]  



